src/pos-icons/arrow-left-bold-circle.svg

<svg height="24" viewBox="0 0 24 24" width="24" xmlns="http://www.w3.org/2000/svg"><path d="m22 12a10 10 0 0 1 -10 10 10 10 0 0 1 -10-10 10 10 0 0 1 10-10 10 10 0 0 1 10 10m-15 0 5 5v-3h4v-4h-4v-3z"/></svg>

<?xml version="1.0" encoding="UTF-8"?><!DOCTYPE svg PUBLIC "-//W3C//DTD SVG 1.1//EN" "http://www.w3.org/Graphics/SVG/1.1/DTD/svg11.dtd"><svg xmlns="http://www.w3.org/2000/svg" xmlns:xlink="http://www.w3.org/1999/xlink" version="1.1" id="mdi-arrow-left-bold-circle" width="24" height="24" viewBox="0 0 24 24"><path d="M22,12A10,10 0 0,1 12,22A10,10 0 0,1 2,12A10,10 0 0,1 12,2A10,10 0 0,1 22,12M7,12L12,17V14H16V10H12V7L7,12Z" /></svg>
